app/assets/images/heroicons/micro/bell-slash.svg

<svg width="16" height="16" viewBox="0 0 16 16" fill="none" xmlns="http://www.w3.org/2000/svg">
<path fill-rule="evenodd" clip-rule="evenodd" d="M4 7.37868V6.47487L10.7427 13.2175C10.2758 14.2677 9.2234 15 8 15C6.34315 15 5 13.6569 5 12H3C2.44772 12 2 11.5523 2 11V10.4142C2 10.149 2.10536 9.89464 2.29289 9.70711L3.56066 8.43934C3.84197 8.15804 4 7.7765 4 7.37868ZM6.5 12C6.5 12.8284 7.17157 13.5 8 13.5C8.82843 13.5 9.5 12.8284 9.5 12H6.5Z" fill="#0F172A"/>
<path d="M14 11C14 11.1535 13.9654 11.2988 13.9037 11.4288L4.92115 2.44627C5.65486 1.56267 6.76172 1 8 1C10.2091 1 12 2.79086 12 5V7.37868C12 7.7765 12.158 8.15804 12.4393 8.43934L13.7071 9.70711C13.8946 9.89464 14 10.149 14 10.4142V11Z" fill="#0F172A"/>
<path d="M2.21967 2.21967C2.51256 1.92678 2.98744 1.92678 3.28033 2.21967L13.7803 12.7197C14.0732 13.0126 14.0732 13.4874 13.7803 13.7803C13.4874 14.0732 13.0126 14.0732 12.7197 13.7803L2.21967 3.28033C1.92678 2.98744 1.92678 2.51256 2.21967 2.21967Z" fill="#0F172A"/>
</svg>

<svg xmlns="http://www.w3.org/2000/svg" viewBox="0 0 16 16" fill="currentColor" aria-hidden="true" data-slot="icon">
  <path fill-rule="evenodd" d="M4 7.379v-.904l6.743 6.742A3 3 0 0 1 5 12H3a1 1 0 0 1-1-1v-.586a1 1 0 0 1 .293-.707L3.56 8.44A1.5 1.5 0 0 0 4 7.38ZM6.5 12a1.5 1.5 0 0 0 3 0h-3Z" clip-rule="evenodd"/>
  <path d="M14 11a.997.997 0 0 1-.096.429L4.92 2.446A4 4 0 0 1 12 5v2.379c0 .398.158.779.44 1.06l1.267 1.268a1 1 0 0 1 .293.707V11ZM2.22 2.22a.75.75 0 0 1 1.06 0l10.5 10.5a.75.75 0 1 1-1.06 1.06L2.22 3.28a.75.75 0 0 1 0-1.06Z"/>
</svg>
